X:1
T:I Love My Love in Secret
M:4/4
L:1/8
K:C
 z4 z2g-f| e2d-c c3 G| A2d-e d2g-f| e2d-c g2 c2|f-ga-g e2d-c|f-g-a fe-f-g e|\
f-e dc d3 c|e-ga-cg-ed-c| A2 cd c2g-f| e2d-c g2 c2| A2d-e d2g-f| e2d-c g2 c2|\
 a2 c2 g2 cc|f-g afe-f ge|f-ed-c de fg| ab c'cg-e dc| A2c-d c2 z2|\
